!!!id: EG006
!!!page: 18-19
!!!COM: Anonymous
!!!LYR: Anonymous
!!!PTL@@FR: Chansons Populaires du Canada
!!!OTL@@FR: Lève ton pied
!!!PUB: G. E. Desbarats
!!!YEM:
!!!PDT: 1865
!!!SMA:
!!!OMD:
!!!AGN-Laforte:
!!!AGN-type:
!!!AGN-rime:
**kern
*clefG2
*k[]
*a:
*M6/8
*
*
!LO:TX:a:i:t=Voix seule, puis la reprise en chœur.
=1
8r
!LO:TX:a:t=(segno)
4a
8a
=2
4cc
8a
4b
8cc
=3
4a
8g
4a
8a
!!LO:PB:g=original
=4
4cc
8a
4b
8cc
=5
4a
!LO:TX:a:t=FIN.
=:|!|:
!LO:TX:a:i:t=Voix seule, puis la reprise en chœur.
8e
4a
8b
=6
4cc
8a
4b
8cc
!!LO:PB:g=original
=7
(4a
8g)
4a
8a
=8
4cc
8a
4b
8cc
=9
4a
!LO:TX:a:i:t=Voix seule.
=:|!|
8e
4a
8cc
!!LO:PB:g=original
=10
4ee
8ee
4dd
8b
=11
4g
8b
4dd
8b
=12
4.g
!LO:TX:a:t=(segno)
==||
*
*
==|
